X:1
T:Title
%%score [ 1 2 3 4 ]
L:1/8
Q:1/4=320
M:3/2
K:C
V:1 treble nm="MusicXML Part"
V:2 treble nm="MusicXML Part"
V:3 treble-8 nm="MusicXML Part"
V:4 treble-8 nm="MusicXML Part"
V:1
 A12 | _B2 A2 G2 F4 E2 | (3D2 E2 F2 (3E2 F2 G2 (3F2 E2 D2 | E4 F2 D4 F2 | E4 F2 D4 F2 | E12 | %6
w: O|||fe- * lix *|tem- plum ju- bi-|la|
 E2 F2 G2 A4 G2 | A4 G4 F4 | (3E2 F2 G2 (3F2 E2 D2 (3:2:2E4 F2 | D12 | z12 | z12 | z12 | z12 | %14
w: et * * * *|chors tu- a|ca- * * no- * * ni- *|ci|||||
 z12 | z12 | z12 | z12 | A4 _B2 A2 G2 F2 | E4 z4 z4 | A4 A2 G4 A2 | B12- | B12 | A4 B4 c4 | %24
w: ||||nunc plau- * dat- cor-|de|sup- * pli- *|ci.||Tu, cle- re,|
 _B4 A2 G4 F2 | E2 F2 G2 ^F4 E2 | G12- | G12 | z12 | z12 | A4 G4 F4 | E4 G2 F4 E2 | D4 z4 z4 | %33
w: vi- * so *|ru- * * ti- *|la.||||Qui pre- sul|di- vi mu- ne-|ris|
 G2 F2 F2 E2 E2 D2 | C2 D2 E2 D2 D2 C2 | D4 z2 E2 F4 | E4 z4 A4 | G4 A2 _B2 B2 c2 | _B6 A2 B2 G2 | %39
w: de * sum- mo * mis-|* sus * car- * di-|ne a jus-|sto na-|to Dar- * * *|da- * * *|
 A12 | D4 E4 F4 | D4 E4 F2 G2 | F12 | _B6 A2 B2 c2 | A4 z4 _B4 | A4 G2 G4 ^F2 | G12 | %47
w: ne|est pa- stor|sa- cri o- ne-|ris.|Tu * * *|* ge-|ni- * to- *|ris|
 A4 (3G2 A2 _B2 (3A2 G2 F2 | (3E2 F2 G2 (3F2 E2 D2 (3:2:2E4 F2 | D4 z4 z4 | z12 | A4 G2 F2 E4 | %52
w: Ste- pha- * * * * *||ne,||o plau- * stri-|
 D4 z4 z4 | A2 B2 A2 G4 A2 | B12- | B12 | A4 _B2 A2 G2 F2 | E4 F2 E4 D2 | E8 D2 E2 | F6 E4 D2 | %60
w: ger|il- lu- stris- si- *|me,||vir- tu- tis splen- di-|dis- si- me *|sunt * *|tu- is fa-|
 E6 D4 ^C2 | D12 | A8 B4 | c8 A4 | B2 c2 B2 A4 ^G2 | A4 z4 z4 | D4 D2 C4 D2 | E2 F2 G2 A4 F2 | %68
w: ctis con- so-|ne:|Fa- no|no- vo|et mul- tis a- *|ris|su- pe- ris quas|de- * di- ca- *|
 E12 | A4 G2 F2 E4 | D4 z4 z4 | D4 A,8 | C6 D2 B,2 ^C2 | D12 | D6 E2 D2 E2 | F2 G2 F2 E2 E2 D2 | %76
w: sti|ad a- stra i-|ter|iam *|pa- ra- sti *|ti-|bi et cun- *|ctis * * tu- i la-|
 F12 | F4 G2 A4 A2 | z12 | F4 D2 E2 F4 | E6 F2 E2 F2 | D4 z2 E2 F4 | E4 D4 E2 F2 | %83
w: ris.|Pre- cor,- pa- tre||o di- * gna|pro- * * *|les, ju- sta,|mi- tis et mo-|
 G2 F2 E2 D4 ^C2 | D12 | z12 | z12 | A4 _B2 A2 G2 F2 | E4 F2 E2 F2 D2 | E4 z4 z4 | z12 | %91
w: * * * de- *|sta.|||vi- ci- o- rum *|ac in- * fie- *|sta.||
 A4 G2 E2 F2 D2 | E6 D4 ^C2 | D4 z4 z4 | z12 | A6 G2 F2 E2 | D8 E4 | F12 | G2 A2 _B2 A4 G2 | F12 | %100
w: vir- tu- ti- bus- *|que re- do-|lens,||di- * gna- *|re *|me|Ci- * co- * ni-|am|
 F4 G2 A4 A2 | z12 | A6 G2 A2 F2 | E4 z4 z4 | A2 A2 c4 B4 | A4 z2 B2 c4 | _B4 A2 A4 G2 | A12 | %108
w: (tan- ti li- cet||sim in- di- *|gnus)|tu- i ha- be-|re in cor-|dis * pi- *|gnus,|
 G4 A4 G4 | F12 | E2 F2 E2 D4 ^C2 | D12 | (3A2 _B2 A2 (3G2 F2 E2 D2 E2 | F4 z4 z4 | c6 A2 B2 c2 | %115
w: es be- ni-|gnus|quo- * * ni- *|am.|A- * * * * * * *|||
 A4 z4 z4 | A6 F2 G2 A2 | F4 z4 z4 | F6 E2 F2 D2 | C4 z4 z4 | F2 G2 A4 D4 | F2 G2 A4 F4 | %122
w: |||||||
 A2 B2 c4 A4 | z2 G2 z2 F2 z2 E2 | F4 C4 z4 | C2 D2 E2 F2 G2 A2 | F4 z4 z4 | c6 B2 c2 A2 | B12- | %129
w: |||||||
 B12 | c12 |] %131
w: |men.|
V:2
 z12 | z12 | z12 | z12 | z12 | z12 | z12 | z12 | z12 | A12 | _B2 A2 G2 F4 E2 | %11
w: |||||||||O||
 (3D2 E2 F2 (3E2 F2 G2 (3F2 E2 D2 | E4 F2 D4 F2 | E4 F2 D4 F2 | E12 | E2 F2 G2 A4 G2 | A4 G4 F4 | %17
w: |fe- * lix *|tem- plum ju- bi-|la|et * * * *|chors tu- a|
 (3E2 F2 G2 (3F2 E2 D2 (3:2:2E4 F2 | D4 z4 z4 | A4 _B2 A2 G2 F2 | E4 D2 D4 C2 | D12- | D12 | %23
w: ca- * * no- * * ni- *|ci|nunc plau- * dat- *|cor- de sup- pli-|ci.||
 z2 D2 F4 G2 A2 | G4 D8 | C6 D2 E2 ^C2 | D12- | D12 | z12 | z12 | D4 E4 F4 | G4 E2 D4 ^C2 | %32
w: Tu, cle- re, *|vi- *|so ru- ti- *|la.||||Qui pre- sul|di- vi mu- ne-|
 D4 z4 z4 | D6 C4 D2 | E2 F2 G2 A4 G2 | A4 D4 z2 D2 | E4 C4 z4 | D2 E2 F8 | D4 E2 D4 C2 | E12 | %40
w: ris|de sum- mo|* mis- sus car- di-|ne * a|jus- sto|na- * to|Dar- * da- *|ne|
 A4 G4 F4 | A2 G2 G2 F2 F2 E2 | F12 | G12 | z4 A4 G4 | A2 B2 c2 B4 A2 | G4 D8 | z12 | z12 | %49
w: est pa- stor|sa- * cri * o- ne-|ris.||Tu ge-|ni- * to- * *|ris *|||
 A4 (3G2 A2 _B2 (3A2 G2 F2 | (3E2 F2 G2 (3F2 E2 D2 (3:2:2E4 F2 | D4 z4 z4 | A4 G2 F2 E4 | %53
w: Ste- pha- * * * * *||ne,|o plau- * stri-|
 D4 E2 D2 D2 C2 | D12- | D12 | D4 E4 F4 | G6 A2 G2 A2 | B12 | c4 B4 A4 | G2 A2 B2 A2 A2 ^G2 | A12 | %62
w: ger il- lu- stris- si-|me,||vir- tu- tis|splen- di- dis- si-|me|sunt tu- is|fa- * ctis con- so- *|ne:|
 D8 D4 | C8 C4 | E4 D2 C2 B,4 | A,12 | A4 _B2 A2 G2 F2 | E4 D2 C4 D2 | E12 | z12 | A4 G2 F2 E4 | %71
w: Fa- no|no- vo|et mul- tis a-|ris|su- pe- ris * quas|de- di- ca- *|sti||ad a- stra i-|
 D4 (3:2:2A4 G2 (3:2:2G4 F2 | (3E2 F2 G2 (3F2 E2 D2 (3:2:2E4 F2 | D12 | D4 D2 C4 B,2 | %75
w: ter iam * pa- *|ra- * * * * * * *|sti|ti- bi et cun-|
 C4 C2 B,4 A,2 | C12 | z12 | F4 G2 A4 A2 | A4 _B2 A2 G2 F2 | E4 z4 z4 | z12 | E4 F2 G4 A2 | %83
w: ctis tu- i la-|ris.||Pre- cor,- pa- tre|o di- * gna pro-|les,||ju- sta, mi- tis|
 B4 A2 A4 ^G2 | A12 | z12 | z12 | z12 | z12 | A4 _B2 A2 G2 F2 | E6 D2 E2 ^C2 | D4 z4 z4 | z12 | %93
w: et mo- de- *|sta.|||||vi- ci- o- rum *|ac in- fie- *|sta.||
 A4 G2 E2 F2 D2 | E6 D4 ^C2 | D12 | A4 A4 G4 | F12 | E4 D4 E4 | F12 | z12 | F4 G2 A4 A2 | z12 | %103
w: vir- tu- ti- bus- *|que re- do-|lens,|di- gna- re|me|Ci- co- ni-|am||(tan- ti li- cet||
 A6 G2 A2 F2 | E4 z2 F2 E2 F2 | D4 F4 z2 F2 | G4 F2 E4 D2 | E12 | E4 D4 E4 | F12 | A4 G2 F2 E4 | %111
w: sim in- di- *|gnus) tu- i ha-|be- re in|cor- dis pi- *|gnus,|es be- ni-|gnus|quo- * * ni-|
 D12 | z12 | (3A2 _B2 A2 (3G2 F2 E2 D2 E2 | F4 z4 z4 | c6 A2 B2 c2 | A4 z4 z4 | A6 F2 G2 A2 | %118
w: am.||A- * * * * * * *|||||
 F4 z4 z4 | F6 E2 F2 D2 | C4 F2 G2 A4 | D4 F2 G2 A4 | F4 A2 B2 c4 | G2 z2 A2 z2 G2 z2 | z4 F4 C4 | %125
w: |||||||
 z12 | C2 D2 E2 F2 G2 A2 | F6 C4 D2 | E12- | E12 | F12 |] %131
w: |||||men.|
V:3
 D8 D4 | z2 D4 A4 A2 | D4 z4 d4 | c2 e4 f2 d4 | c2 e4 f2 d4 | e2 d2 c2 B4 A2 | c12 | d8 d4 | %8
 c4 d4 A4 | D12 | A8 A4 | B4 c4 d4- | d2 c4 B2 d4 | A2 c4 B2 d4 | z2 e2 d2 c4 B2 | A8 E4 | %16
 F4 E4 D4 | z2 D4 D2 A4 | D12 | c12- | c12 | z12 | d12 | f8 e4 | d8 f4 | e4 d4 c4 | B6 A2 B2 c2 | %27
 d4 z4 d4 | c4 d2 B2 c2 d2 | e2 f2 e2 d2 e2 ^c2 | d12 | z2 c4 d2 A4 | D12 | z12 | C8 C4 | %35
 z2 D2 F2 G2 A4 | z2 c2 c4 A4 | z2 d4 c2 d2 e2 | f4 e4 d4 | c8 c4 | d8 d4 | f4 e4 d4 | D12 | %43
 z2 G2 G2 F2 G2 E2 | F8 G4 | F4 G4 D4 | z2 d2 _e2 d2 c2 _B2 | A8 d4 | c4 d4 A4 | z2 f4 e2 f2 d2 | %50
 e2 c2 d2 B2 A4 | D8 A4 | z2 D4 D2 A4 | D12 | z12 | z12 | d12 | B12- | B12 | d2 c4 B2 A4 | %60
 c2 B4 A2 ^G4 | A8 A4 | D8 G4 | A12 | z2 A2 B2 c2 d4 | e8 e4 | f6 e2 f2 d2 | c4 e4 d4 | A4 B4 c4 | %69
 d4 d2 c4 B2 | d8 A4 | D8 D4 | A8 G4 | A12 | z12 | z12 | z12 | d8 c4 | d4 z2 D4 D2 | D8 D4 | %80
 A8 A4 | G2 F4 E2 D4 | A4 D4 z2 c2 | d2 B2 A4 G4 | A6 G2 F2 E2 | D8 D4 | z2 A2 G2 F2 G2 _E2 | %87
 D12- | D12- | D12 | z4 D8 | A12 | z4 D8 | A12 | c12 | f12 | d12 | A12 | d4 d2 c4 B2 | d4 z4 d4 | %100
 c4 d4 A4 | z2 A4 B2 c4 | d12 | c12 | z12 | D8 E4 | D4 z2 A2 F2 G2 | A8 A4 | G4 F4 E4 | %109
 D4 z2 d4 d2 | A12- | A12 | c4 d4 B4 | A4 c2 B4 A2 | c12 | F12 | c4 c2 F4 F2 | c4 c2 F4 F2 | c12- | %119
 c8 f4 | f4 e4 d4 | c8 d4 | A4 c2 B2 A2 G2 | F12 | c4 d4 c4 | F12 | f4 e4 c4 | z2 d2 c2 B2 c2 A2 | %128
 B12- | B12 | c12 |] %131
V:4
 d12 | A4 B4 ^c4 | d4 c4 _B4 | A4 D8 | A4 D8 | G12 | A4 E8 | D12 | A4 B4 ^c4 | d12 | D12 | %11
 G4 A4 _B4 | A4 F2 G4 F2 | A4 F2 G4 F2 | A12 | A4 c4 _B4 | A4 c4 d4 | A4 B4 ^c4 | d12 | A12- | %20
 A12 | G12- | G12 | d8 c4 | G8 d4 | A4 B4 A4 | G12- | G12 | A4 G4 F4 | E4 G2 F4 E2 | D4 z4 z4 | %31
 z12 | z12 | G4 A4 F4 | E4 F4 E4 | D12 | A12 | _B12- | B12 | A12 | z12 | z12 | z12 | z12 | z12 | %45
 z12 | G12 | D12 | A4 B4 ^c4 | d4 c4 d4 | A4 B4 ^c4 | d8 ^c4 | d8 ^c4 | d12 | G12- | G12 | D12 | %57
 G12- | G12 | F4 A2 G4 F2 | E4 G2 F4 E2 | D8 D4 | z12 | z12 | z12 | z12 | z12 | z12 | z12 | z12 | %70
 z12 | z12 | z12 | D12 | G12 | F4 G8 | F12 | _B6 A6 | _B6 A6 | d12 | c12 | z2 d2 c4 d4 | %82
 z2 c2 d4 A4 | G4 F4 E4 | D12 | d4 _e2 d2 c2 _B2 | A4 _B2 A2 B2 G2 | A12- | A12 | A12- | A12 | %91
 D12 | A12 | D12 | A4 E8 | D12 | z12 | z12 | z12 | F12 | _B6 A6 | _B6 A6 | D12 | A12- | A12 | %105
 d8 c2 d2 | _e2 d4 c4 _B2 | A12 | z12 | z12 | z12 | D12 | A4 G8 | F4 G8 | F12 | c12 | F4 c8 | %117
 F4 c8 | F12- | F12- | F12- | F12 | F12 | c12 | F12 | c4 d4 c4 | F4 c8 | F12 | G12- | G12 | F12 |] %131

